img/fotopariktigt-logo.svg

<?xml version="1.0" encoding="UTF-8" standalone="no"?>
<!DOCTYPE svg PUBLIC "-//W3C//DTD SVG 1.1//EN" "http://www.w3.org/Graphics/SVG/1.1/DTD/svg11.dtd">
<svg width="100%" height="100%" viewBox="0 0 500 200" version="1.1" xmlns="http://www.w3.org/2000/svg" xmlns:xlink="http://www.w3.org/1999/xlink" xml:space="preserve" xmlns:serif="http://www.serif.com/" style="fill-rule:evenodd;clip-rule:evenodd;stroke-miterlimit:10;">
    <rect x="0" y="76.4" width="500" height="167.3" style="fill:none;"/>
    <rect x="-317" y="76.4" width="500" height="167.3" style="fill:none;"/>
    <rect x="-317" y="76.4" width="500" height="167.3" style="fill:none;"/>
    <g transform="matrix(1,0,0,1,44.7402,113.63)">
        <path d="M4.896,0L4.896,-36.21L28.356,-36.21L28.356,-34.578L6.681,-34.578L6.681,-19.278L25.092,-19.278L25.092,-17.697L6.681,-17.697L6.681,0L4.896,0Z" style="fill:white;fill-rule:nonzero;"/>
        <path d="M48.96,0.255C46.444,0.255 44.149,-0.272 42.075,-1.326C40.001,-2.38 38.216,-3.757 36.72,-5.457C35.224,-7.157 34.068,-9.112 33.252,-11.322C32.436,-13.532 32.028,-15.793 32.028,-18.105C32.028,-20.519 32.462,-22.831 33.329,-25.041C34.195,-27.251 35.386,-29.206 36.899,-30.906C38.412,-32.606 40.197,-33.958 42.254,-34.961C44.311,-35.963 46.546,-36.465 48.96,-36.465C51.476,-36.465 53.771,-35.93 55.845,-34.859C57.919,-33.788 59.696,-32.385 61.175,-30.651C62.654,-28.917 63.801,-26.954 64.617,-24.761C65.433,-22.568 65.841,-20.349 65.841,-18.105C65.841,-15.657 65.408,-13.328 64.54,-11.118C63.674,-8.908 62.483,-6.961 60.971,-5.279C59.457,-3.596 57.673,-2.253 55.615,-1.25C53.558,-0.247 51.34,0.255 48.96,0.255ZM33.813,-18.105C33.813,-15.929 34.187,-13.838 34.935,-11.832C35.683,-9.826 36.728,-8.05 38.072,-6.503C39.414,-4.956 41.013,-3.723 42.866,-2.805C44.719,-1.887 46.75,-1.428 48.96,-1.428C51.238,-1.428 53.304,-1.912 55.156,-2.882C57.01,-3.85 58.599,-5.117 59.925,-6.681C61.251,-8.245 62.271,-10.03 62.985,-12.036C63.699,-14.042 64.056,-16.065 64.056,-18.105C64.056,-20.281 63.674,-22.372 62.909,-24.378C62.144,-26.384 61.09,-28.161 59.746,-29.708C58.404,-31.255 56.806,-32.487 54.953,-33.405C53.1,-34.323 51.102,-34.782 48.96,-34.782C46.682,-34.782 44.617,-34.298 42.764,-33.329C40.911,-32.359 39.321,-31.093 37.995,-29.529C36.669,-27.965 35.641,-26.189 34.91,-24.2C34.179,-22.211 33.813,-20.179 33.813,-18.105Z" style="fill:white;fill-rule:nonzero;"/>
        <path d="M96.339,-34.578L82.773,-34.578L82.773,0L80.988,0L80.988,-34.578L67.422,-34.578L67.422,-36.21L96.339,-36.21L96.339,-34.578Z" style="fill:white;fill-rule:nonzero;"/>
        <path d="M114.852,0.255C112.336,0.255 110.041,-0.272 107.967,-1.326C105.893,-2.38 104.108,-3.757 102.612,-5.457C101.116,-7.157 99.96,-9.112 99.144,-11.322C98.328,-13.532 97.92,-15.793 97.92,-18.105C97.92,-20.519 98.354,-22.831 99.221,-25.041C100.088,-27.251 101.278,-29.206 102.791,-30.906C104.304,-32.606 106.089,-33.958 108.146,-34.961C110.203,-35.963 112.438,-36.465 114.852,-36.465C117.368,-36.465 119.663,-35.93 121.737,-34.859C123.811,-33.788 125.588,-32.385 127.067,-30.651C128.546,-28.917 129.693,-26.954 130.509,-24.761C131.325,-22.568 131.733,-20.349 131.733,-18.105C131.733,-15.657 131.3,-13.328 130.433,-11.118C129.566,-8.908 128.376,-6.961 126.863,-5.279C125.35,-3.596 123.565,-2.253 121.508,-1.25C119.451,-0.247 117.232,0.255 114.852,0.255ZM99.705,-18.105C99.705,-15.929 100.079,-13.838 100.827,-11.832C101.575,-9.826 102.621,-8.05 103.964,-6.503C105.307,-4.956 106.905,-3.723 108.758,-2.805C110.611,-1.887 112.642,-1.428 114.852,-1.428C117.13,-1.428 119.196,-1.912 121.049,-2.882C122.902,-3.85 124.491,-5.117 125.817,-6.681C127.143,-8.245 128.163,-10.03 128.877,-12.036C129.591,-14.042 129.948,-16.065 129.948,-18.105C129.948,-20.281 129.566,-22.372 128.801,-24.378C128.036,-26.384 126.982,-28.161 125.639,-29.708C124.296,-31.255 122.698,-32.487 120.845,-33.405C118.992,-34.323 116.994,-34.782 114.852,-34.782C112.574,-34.782 110.509,-34.298 108.656,-33.329C106.803,-32.359 105.213,-31.093 103.887,-29.529C102.561,-27.965 101.533,-26.189 100.802,-24.2C100.071,-22.211 99.705,-20.179 99.705,-18.105Z" style="fill:white;fill-rule:nonzero;"/>
    </g>
    <g>
        <path d="M186.7,113.6L186.7,96.5L190.9,77.4L201.8,77.4C203.4,77.4 204.9,77.7 206.2,78.4C207.5,79.1 208.7,79.9 209.7,81.1C210.7,82.2 211.4,83.4 212,84.8C212.5,86.2 212.8,87.6 212.8,89C212.8,90.5 212.5,91.9 212,93.3C211.5,94.7 210.8,95.9 209.8,97C208.9,98.1 207.7,99 206.4,99.6C205.1,100.2 203.6,100.6 202,100.6L191.2,100.6L191.2,113.6L186.7,113.6ZM191.3,96.5L201.9,96.5C202.9,96.5 203.7,96.3 204.5,95.9C205.3,95.5 205.9,95 206.5,94.3C207,93.6 207.5,92.8 207.8,91.9C208.1,91 208.3,90 208.3,89C208.3,87.9 208.1,87 207.8,86C207.4,85.1 207,84.3 206.4,83.6C205.8,82.9 205.1,82.4 204.3,82C203.5,81.6 202.7,81.4 201.8,81.4L191.5,81.4L191.5,96.5L191.3,96.5Z" style="fill:white;fill-rule:nonzero;"/>
        <path d="M226.9,77.4L230.8,77.4L239.3,98.3L237.6,106.1L236.4,103L221.2,103L217,113.6L212,113.6L226.9,77.4ZM235.3,99.5L228.8,82.8L222.1,99.5L235.3,99.5ZM224.6,70.4C224.6,69.3 225,68.5 225.8,67.8C226.6,67.2 227.6,66.9 228.8,66.9C230,66.9 231,67.2 231.8,67.8C232.6,68.4 232.9,69.3 232.9,70.4C232.9,71.5 232.5,72.3 231.8,73C231,73.6 230,73.9 228.8,73.9C227.6,73.9 226.6,73.6 225.8,73C225,72.4 224.6,71.5 224.6,70.4ZM228.7,68.5C228.1,68.5 227.6,68.7 227.2,69C226.8,69.4 226.6,69.8 226.6,70.4C226.6,70.9 226.8,71.4 227.2,71.8C227.6,72.2 228.1,72.4 228.7,72.4C229.2,72.4 229.7,72.2 230.2,71.9C230.6,71.5 230.8,71.1 230.8,70.5C230.8,69.9 230.6,69.5 230.2,69.1C229.8,68.7 229.3,68.5 228.7,68.5Z" style="fill:white;fill-rule:nonzero;"/>
        <path d="M250.9,113.6L250.9,77.4L265.8,77.4C267.3,77.4 268.7,77.7 270,78.4C271.3,79 272.4,79.9 273.3,80.9C274.2,81.9 274.9,83.1 275.4,84.4C275.9,85.7 276.2,87.1 276.2,88.4C276.2,89.8 276,91.1 275.6,92.4C275.2,93.7 274.6,94.8 273.8,95.8C273,96.8 272.1,97.6 271,98.2C269.9,98.8 268.7,99.2 267.4,99.4L276.5,113.6L274.5,113.6L265.5,99.6L252.9,99.6L252.9,113.6L250.9,113.6ZM252.7,98L266.1,98C267.4,98 268.5,97.7 269.5,97.2C270.5,96.7 271.4,95.9 272.1,95.1C272.8,94.2 273.4,93.2 273.8,92C274.2,90.8 274.4,89.7 274.4,88.5C274.4,87.3 274.2,86.1 273.7,85C273.2,83.9 272.6,82.9 271.8,82C271,81.1 270.1,80.4 269,79.9C267.9,79.4 266.8,79.1 265.6,79.1L252.5,79.1L252.5,98L252.7,98Z" style="fill:white;fill-rule:nonzero;"/>
        <rect x="283.8" y="77.4" width="1.8" height="36.2" style="fill:white;fill-rule:nonzero;"/>
        <path d="M295.4,113.6L295.4,77.4L297.2,77.4L297.2,100.2L319.3,77.4L321.5,77.4L306.3,93.3L322.3,113.6L320.2,113.6L305,94.4L297.1,102.5L297.1,113.7L295.4,113.7L295.4,113.6Z" style="fill:white;fill-rule:nonzero;"/>
        <path d="M352.3,79.1L338.7,79.1L338.7,113.7L337,113.7L337,79.1L323.4,79.1L323.4,77.5L352.3,77.5L352.3,79.1Z" style="fill:white;fill-rule:nonzero;"/>
        <rect x="358.1" y="77.4" width="1.8" height="36.2" style="fill:white;fill-rule:nonzero;"/>
        <path d="M396.8,107.7C393.1,111.8 388.9,113.9 384.2,113.9C381.7,113.9 379.4,113.4 377.3,112.3C375.2,111.2 373.4,109.8 371.9,108.1C370.4,106.4 369.2,104.4 368.4,102.2C367.5,100 367.1,97.8 367.1,95.5C367.1,93.1 367.5,90.8 368.3,88.6C369.1,86.4 370.3,84.4 371.7,82.7C373.2,81 374.9,79.6 377,78.6C379,77.6 381.2,77.1 383.7,77.1C385.5,77.1 387.2,77.3 388.6,77.7C390.1,78.1 391.4,78.6 392.5,79.3C393.6,80 394.6,80.8 395.4,81.8C396.2,82.8 396.9,83.8 397.5,85L396,85.8C394.7,83.3 393,81.5 390.8,80.4C388.7,79.3 386.3,78.8 383.6,78.8C381.3,78.8 379.3,79.3 377.5,80.3C375.7,81.3 374.1,82.5 372.9,84.1C371.6,85.7 370.6,87.4 370,89.4C369.3,91.4 369,93.4 369,95.5C369,97.7 369.4,99.8 370.2,101.8C371,103.8 372.1,105.6 373.5,107.1C374.9,108.6 376.5,109.9 378.4,110.8C380.3,111.7 382.3,112.2 384.4,112.2C386.7,112.2 388.8,111.7 390.9,110.6C393,109.5 395,107.9 396.9,105.6L396.9,97.7L388.5,97.7L388.5,96.2L398.5,96.2L398.5,113.6L396.9,113.6L396.9,107.7L396.8,107.7Z" style="fill:white;fill-rule:nonzero;"/>
        <path d="M430.2,79.1L416.6,79.1L416.6,113.7L414.8,113.7L414.8,79.1L401.2,79.1L401.2,77.5L430.1,77.5L430.1,79.1L430.2,79.1Z" style="fill:white;fill-rule:nonzero;"/>
    </g>
    <path d="M235,118L245,72" style="fill:none;stroke:white;stroke-width:2px;"/>
    <path d="M182,118L192,72" style="fill:none;stroke:white;stroke-width:2px;"/>
</svg>

<?xml version="1.0" encoding="utf-8"?>
<!-- Generator: Adobe Illustrator 22.1.0, SVG Export Plug-In . SVG Version: 6.00 Build 0)  -->
<svg version="1.1" id="Layer_1" xmlns="http://www.w3.org/2000/svg" xmlns:xlink="http://www.w3.org/1999/xlink" x="0px" y="0px"
	 viewBox="0 0 500 200" style="enable-background:new 0 0 500 200;" xml:space="preserve">
<style type="text/css">
	.st0{display:none;}
	.st1{fill:none;}
	.st2{display:inline;fill:#FFFFFF;}
	.st3{font-family:'Raleway-ExtraLight';}
	.st4{font-size:49px;}
	.st5{font-family:'Raleway-Medium';}
	.st6{font-size:51px;}
	.st7{display:none;fill:#FFFFFF;}
	.st8{fill:#FFFFFF;}
	.st9{fill:none;stroke:#FFFFFF;stroke-width:2;stroke-miterlimit:10;}
</style>
<polyline class="st0" points="0,0 500,0 500,200 0,200 "/>
<rect y="76.4" class="st1" width="500" height="167.3"/>
<text transform="matrix(1 0 0 1 67.7207 113.6299)" class="st0"><tspan x="0" y="0" class="st2 st3 st4">FILM</tspan><tspan x="112.1" y="0" class="st2 st5 st6">PÅ</tspan><tspan x="178.4" y="0" class="st2 st3 st6">RIKTIGT</tspan></text>
<rect x="-317" y="76.4" class="st1" width="500" height="167.3"/>
<text transform="matrix(1 0 0 1 66.3652 113.6299)" class="st7 st3 st6">FILM</text>
<rect x="-317" y="76.4" class="st1" width="500" height="167.3"/>
<text transform="matrix(1 0 0 1 44.7402 113.6299)" class="st8 st3 st6">FOTO</text>
<g>
	<path class="st8" d="M186.7,113.6V96.5l4.2-19.1h10.9c1.6,0,3.1,0.3,4.4,1c1.3,0.7,2.5,1.5,3.5,2.7c1,1.1,1.7,2.3,2.3,3.7
		c0.5,1.4,0.8,2.8,0.8,4.2c0,1.5-0.3,2.9-0.8,4.3c-0.5,1.4-1.2,2.6-2.2,3.7c-0.9,1.1-2.1,2-3.4,2.6c-1.3,0.6-2.8,1-4.4,1h-10.8v13
		H186.7z M191.3,96.5h10.6c1,0,1.8-0.2,2.6-0.6c0.8-0.4,1.4-0.9,2-1.6c0.5-0.7,1-1.5,1.3-2.4c0.3-0.9,0.5-1.9,0.5-2.9
		c0-1.1-0.2-2-0.5-3c-0.4-0.9-0.8-1.7-1.4-2.4c-0.6-0.7-1.3-1.2-2.1-1.6c-0.8-0.4-1.6-0.6-2.5-0.6h-10.3V96.5z"/>
	<path class="st8" d="M226.9,77.4h3.9l8.5,20.9l-1.7,7.8l-1.2-3.1h-15.2l-4.2,10.6H212L226.9,77.4z M235.3,99.5l-6.5-16.7l-6.7,16.7
		H235.3z M224.6,70.4c0-1.1,0.4-1.9,1.2-2.6c0.8-0.6,1.8-0.9,3-0.9c1.2,0,2.2,0.3,3,0.9c0.8,0.6,1.1,1.5,1.1,2.6
		c0,1.1-0.4,1.9-1.1,2.6c-0.8,0.6-1.8,0.9-3,0.9c-1.2,0-2.2-0.3-3-0.9C225,72.4,224.6,71.5,224.6,70.4z M228.7,68.5
		c-0.6,0-1.1,0.2-1.5,0.5c-0.4,0.4-0.6,0.8-0.6,1.4c0,0.5,0.2,1,0.6,1.4c0.4,0.4,0.9,0.6,1.5,0.6c0.5,0,1-0.2,1.5-0.5
		c0.4-0.4,0.6-0.8,0.6-1.4s-0.2-1-0.6-1.4C229.8,68.7,229.3,68.5,228.7,68.5z"/>
	<path class="st8" d="M250.9,113.6V77.4h14.9c1.5,0,2.9,0.3,4.2,1c1.3,0.6,2.4,1.5,3.3,2.5s1.6,2.2,2.1,3.5c0.5,1.3,0.8,2.7,0.8,4
		c0,1.4-0.2,2.7-0.6,4c-0.4,1.3-1,2.4-1.8,3.4c-0.8,1-1.7,1.8-2.8,2.4c-1.1,0.6-2.3,1-3.6,1.2l9.1,14.2h-2l-9-14h-12.6v14H250.9z
		 M252.7,98h13.4c1.3,0,2.4-0.3,3.4-0.8c1-0.5,1.9-1.3,2.6-2.1c0.7-0.9,1.3-1.9,1.7-3.1c0.4-1.2,0.6-2.3,0.6-3.5
		c0-1.2-0.2-2.4-0.7-3.5c-0.5-1.1-1.1-2.1-1.9-3c-0.8-0.9-1.7-1.6-2.8-2.1c-1.1-0.5-2.2-0.8-3.4-0.8h-13.1V98z"/>
	<path class="st8" d="M283.8,113.6V77.4h1.8v36.2H283.8z"/>
	<path class="st8" d="M295.4,113.6V77.4h1.8v22.8l22.1-22.8h2.2l-15.2,15.9l16,20.3h-2.1L305,94.4l-7.9,8.1v11.2H295.4z"/>
	<path class="st8" d="M352.3,79.1h-13.6v34.6H337V79.1h-13.6v-1.6h28.9V79.1z"/>
	<path class="st8" d="M358.1,113.6V77.4h1.8v36.2H358.1z"/>
	<path class="st8" d="M396.8,107.7c-3.7,4.1-7.9,6.2-12.6,6.2c-2.5,0-4.8-0.5-6.9-1.6s-3.9-2.5-5.4-4.2c-1.5-1.7-2.7-3.7-3.5-5.9
		c-0.9-2.2-1.3-4.4-1.3-6.7c0-2.4,0.4-4.7,1.2-6.9c0.8-2.2,2-4.2,3.4-5.9c1.5-1.7,3.2-3.1,5.3-4.1c2-1,4.2-1.5,6.7-1.5
		c1.8,0,3.5,0.2,4.9,0.6c1.5,0.4,2.8,0.9,3.9,1.6c1.1,0.7,2.1,1.5,2.9,2.5c0.8,1,1.5,2,2.1,3.2l-1.5,0.8c-1.3-2.5-3-4.3-5.2-5.4
		c-2.1-1.1-4.5-1.6-7.2-1.6c-2.3,0-4.3,0.5-6.1,1.5c-1.8,1-3.4,2.2-4.6,3.8c-1.3,1.6-2.3,3.3-2.9,5.3c-0.7,2-1,4-1,6.1
		c0,2.2,0.4,4.3,1.2,6.3c0.8,2,1.9,3.8,3.3,5.3c1.4,1.5,3,2.8,4.9,3.7c1.9,0.9,3.9,1.4,6,1.4c2.3,0,4.4-0.5,6.5-1.6
		c2.1-1.1,4.1-2.7,6-5v-7.9h-8.4v-1.5h10v17.4h-1.6V107.7z"/>
	<path class="st8" d="M430.2,79.1h-13.6v34.6h-1.8V79.1h-13.6v-1.6h28.9V79.1z"/>
</g>
<line class="st9" x1="235" y1="118" x2="245" y2="72"/>
<line class="st9" x1="182" y1="118" x2="192" y2="72"/>
</svg>
